X: 1
T: Aunt Mary's Canadian Jig
T:Aunt May's Jig
M: 6/8
R: jig
K: D
A| "D"f2f fga| d2d dcB| ABA "B7"AGF| "Em"E2E E2A|
"A7"e2e efg| e2d c2B|1 A2A ABA| "D"F3 F2:|2A2A ABc| "D"d3 z2A|]
|: "D"ABA faf| e2d d2z| AFA "B7"BcB| "Em"A2G G2z|
"A7"GFG efe| d2c c2B|1 A2A ABA| "D"F3  z2A:|2 A2A ABc| "D"d3z2|]
